X:37
T:Frisky Peggy
M: C|
L:1/8
B:Thompson's Compleat Collection of 200 Favourite Country Dances, vol. 3 (London, 1773)
Z:Transcribed and edited by Flynn Titford-Mock, 2007
Z:abc's:AK/Fiddler's Companion
K:A
ABcd ecBA | Bcde fdcB | ABcd efga | gfe^d e2E2 :|
|: efga bgfe | Bcde fdcB | ABcd efga | fdcB A2 [A,2A2] :|

